icons/Yaru/scalable/apps/mail-app-symbolic.svg

<svg version="1.1" viewBox="0 0 16 16" xmlns="http://www.w3.org/2000/svg">
 <path d="m2 2c-0.438 0-0.786 0.039-1.078 0.148-0.292 0.11-0.526 0.31-0.664 0.561-0.277 0.502-0.248 1.114-0.258 1.953v6.676c0.01 0.839-0.019 1.451 0.258 1.953 0.138 0.251 0.372 0.45 0.664 0.56s0.64 0.149 1.078 0.149h12c0.439 0 0.786-0.039 1.078-0.148 0.293-0.11 0.528-0.31 0.666-0.561 0.277-0.502 0.246-1.114 0.256-1.953v-6.676c-0.01-0.839 0.021-1.451-0.256-1.953a1.258 1.258 0 0 0-0.666-0.56c-0.292-0.11-0.64-0.149-1.078-0.149zm0 1h12c0.38 0 0.606 0.039 0.727 0.084 0.083 0.031 0.127 0.08 0.142 0.107 0.095 0.172 0.12 0.615 0.131 1.473v6.674c-0.01 0.855-0.036 1.299-0.13 1.47a0.27 0.27 0 0 1-0.143 0.108c-0.121 0.045-0.347 0.084-0.727 0.084h-12c-0.38 0-0.606-0.039-0.726-0.084a0.257 0.257 0 0 1-0.141-0.107c-0.096-0.174-0.123-0.617-0.133-1.471v-6.674c0.01-0.856 0.037-1.299 0.133-1.473a0.257 0.257 0 0 1 0.14-0.107c0.121-0.045 0.348-0.084 0.727-0.084zm0.537 1.578-0.285 0.438 5.873 4.22 5.875-4.236-0.285-0.422-5.59 3.373z" fill="#808080" font-family="Ubuntu" font-size="15px" font-weight="400" letter-spacing="0" text-anchor="middle" word-spacing="0"/>
</svg>

<?xml version="1.0" encoding="UTF-8" standalone="no"?>
<svg
   version="1.1"
   viewBox="0 0 16 16"
   id="svg10"
   sodipodi:docname="mail-app-symbolic.svg"
   inkscape:version="1.1.1 (3bf5ae0d25, 2021-09-20)"
   xmlns:inkscape="http://www.inkscape.org/namespaces/inkscape"
   xmlns:sodipodi="http://sodipodi.sourceforge.net/DTD/sodipodi-0.dtd"
   xmlns="http://www.w3.org/2000/svg"
   xmlns:svg="http://www.w3.org/2000/svg">
  <defs
     id="defs14" />
  <sodipodi:namedview
     id="namedview12"
     pagecolor="#ffffff"
     bordercolor="#666666"
     borderopacity="1.0"
     inkscape:pageshadow="2"
     inkscape:pageopacity="0.0"
     inkscape:pagecheckerboard="0"
     showgrid="true"
     showborder="true"
     inkscape:zoom="16"
     inkscape:cx="6.0625"
     inkscape:cy="8.34375"
     inkscape:window-width="1298"
     inkscape:window-height="704"
     inkscape:window-x="0"
     inkscape:window-y="0"
     inkscape:window-maximized="1"
     inkscape:current-layer="svg10">
    <inkscape:grid
       type="xygrid"
       id="grid1128" />
  </sodipodi:namedview>
  <g
     id="g930">
    <path
       d="M 2,2 C 1.562,2 1.214,2.039 0.922,2.148 0.63,2.258 0.396,2.458 0.258,2.709 -0.019,3.211 0.01,3.823 0,4.662 v 6.676 c 0.01,0.839 -0.019,1.451 0.258,1.953 0.138,0.251 0.372,0.45 0.664,0.56 C 1.214,13.961 1.562,14 2,14 h 12 c 0.439,0 0.786,-0.039 1.078,-0.148 0.293,-0.11 0.528,-0.31 0.666,-0.561 C 16.021,12.789 15.99,12.177 16,11.338 V 4.662 C 15.99,3.823 16.021,3.211 15.744,2.709 A 1.258,1.258 0 0 0 15.078,2.149 C 14.786,2.039 14.438,2 14,2 Z m 0,1 h 12 c 0.38,0 0.606,0.039 0.727,0.084 0.083,0.031 0.127,0.08 0.142,0.107 0.095,0.172 0.12,0.615 0.131,1.473 v 6.674 c -0.01,0.855 -0.036,1.299 -0.13,1.47 a 0.27,0.27 0 0 1 -0.143,0.108 C 14.606,12.961 14.38,13 14,13 H 2 C 1.62,13 1.394,12.961 1.274,12.916 A 0.257,0.257 0 0 1 1.133,12.809 C 1.037,12.635 1.01,12.192 1,11.338 V 4.664 C 1.01,3.808 1.037,3.365 1.133,3.191 A 0.257,0.257 0 0 1 1.273,3.084 C 1.394,3.039 1.621,3 2,3 Z M 2.537,4.578 2.252,5.016 8.125,9.236 14,5 13.715,4.578 8.125,7.951 Z"
       fill="#808080"
       font-family="Ubuntu"
       font-size="15px"
       font-weight="400"
       letter-spacing="0"
       text-anchor="middle"
       word-spacing="0"
       id="path2" />
  </g>
</svg>
